X:4
T:Bonaparte's Retreat
Z: id:dc-setdance-5
M:C|
L:1/8
K:G Major
GE|DGGF GBAG|FAde fefg|agfa gfde|fdcA BGAF|!
DGGF GBAG|FAde fefg|agfd cAFG|(3ABA GF G2:|!
de|fefg fefd|gfga gfde|fgag fdcA|G2AF GFED|!
fefg fefd|gfga g2fg|agbg agfd|(3gag af g2fg|!
agbg agfd|(3gag af gfde|fgag fdcA|G2AF G2|]!

